T: Humours Of Ayle House, The
M: 6/8
L: 1/8
K: Dmaj
FDD A2d|cAA BAG|FDD AdB|cAF GB/A/G|
FDD def|ged cde|fef ded|1cAF GB/A/G:|2cAF GAB||
cAA fed|cAA ~A2B|cAA fed|cAF GAB|
cAA fed|cAA cde|fef ded|1cAF GAB:|2cAF GB/A/G||
